X: 1
T: The Eavesdropper
R: jig
M: 6/8
L: 1/8
K: Gmaj
D2 B BAG|Bcd {e} dBG|cde dBG|BAG AGE|
D2 B BAG|Bcd {e} dBG|cde dBG|BGF G2 z:||
gfg afd|efg dBG|cde dBG|BAG Adf|
gfg afd|efg dBG|cde dBG|AGF G2 d|
gfg afd|efg dBG|cde dBG|BAG Adf|
gab bfd|efg dBG|cde dBA|BGF G2 z||


Tune 389	Setting 13225

